!!!ONB: MCCC : IEG0086_01 : Extracted Monophonic Melody
!!!COM: Grieg, Edvard
!!!OPR: Piano Sonata
!!!OMV: 1
!!!SCT: Op.7
!!!ODT: 1865///
**kern
*staff1
*IPiano
=1
*clefG2
*k[f#]
*e:
*M2/4
4ee
4b
=2
4.g
8f#
=3
8.e
16d
8c
8B
=4
4B
8A#
8r
=5
4B
8c#
8d#
=6
4e
8f#
8g#
=7
4a[
16a]
16b
16g#
16a
=8
16cc
16ee
16aa
16ccc
8aaa
16r
16ff#
=9
4ee[
16ee]
16dd#
16ee
16ff#
=10
4aa[
16aa]
16gg
16ff#
16ee
=11
8bb
8bbb
8r
8bb
=12
8r
8bb
8r
8bb
=13
4eee
4bb
=14
4.gg
8ff#
=15
8.ee
16dd
8cc
8b
=16
4b
4a#
=17
16r
16a#
16e
16a#
8dd
8cc#
=18
16r
16cc#
16e
16cc#
8b
8a#
=19
16r
16a#
16e
16a#
8dd
8cc#
=20
16r
16cc#
16e
16cc#
8b
8a#
=21
16r
16dd#
16a
16dd#
8gg
8ff#
=22
16r
16ff#
16a
16ff#
8ee
8dd#
=23
16r
16dd#
16a
16dd#
8gg
8ff#
=24
16r
16ff#
16a
16ff#
8ee
8dd#
=25
4aa
8.bb
16bb
=26
8ccc
8aa
8ccc
8aa
=27
4ccc
8.fff#
16fff#
=28
4fff#
4fff#
=29
4aa#
8.bb
16bb
=30
8ccc#
8aa#
8ccc#
8aa#
=31
4ccc#
8.fff#
16fff#
=32
4fff#
4fff#
=33
4bb
8.ccc
16ccc#
=34
8ddd
8bb
8ddd
8r
=35
8ddd#
8bb
8ddd#
8r
=36
8d#
8B
8d#
8B
=37
24r
24G
24F#
24E
24G
24B
24r
24B
24A
24G
24B
24e
=38
4r
4c
8e
8d#
=39
24r
24g
24f#
24e
24g
24b
24r
24b
24a
24g
24b
24ee
=40
4r
4cc
8ee
8dd#
=41
24r
24g
24f#
24e
24g
24b
8b
8a#
=42
24r
24b
24a#
24a
24b
24ff#
8ff#
8ee
=43
4r
4gg
8bb
8aa#
=44
24r
24bb
24aa#
24aa
24bb
24fff#
8fff#
8eee
=45
8r
4eee
8eee[
=46
8eee]
8ddd#
8ddd
8ccc#
=47
8r
8ccc#
8.bb
16aa
=48
8aa
8aa#
4bb[
=49
16bb]
16aa#
16ccc#
16bb
16gg
16ee
16b
16g
=50
4g
8f#
16r
16g
=51
8a
8f#
4d
=52
8e
8f#
4d
=53
8e
8f#
4d
=54
4b
8a#
16r
16b
=55
8cc#
8a#
4f#
=56
8g
8a
4f#
=57
8g
8a
4f#
=58
4g
8f#
16r
16g
=59
8a-
8g
4a-
=60
4b
8a#
16r
16b
=61
8cc
8b
4cc
=62
4ee-
8dd
16r
16ee-
=63
8dd
8cc#
4dd
=64
8ee
8dd#
4ee
=65
8a
8g#
4a
=66
4r
4gg
=67
8ff#
8bb
8r
8ff#
=68
8ee
8bb
8r
8ee
=69
8dd#
8bb
8dd
8bb
=70
4r
4ee
=71
8dd#
8aa
8r
8dd#
=72
8dd
8aa
8r
8dd
=73
8cc#
8aa
8cc
8aa
=74
2b
=75
2a
=76
2g
=77
2d#
=78
2d
=79
4c#
4c
=80
4B
4A#
=81
2A
=82
4eee
4bb
=83
4.gg#
8ff#
=84
8.ee
16dd#
8cc#
8b
=85
4b
8a#
8r
=86
4bbb
12b
12b
4fff#
12b
12b
=87
4.ddd
12b
12b
12b
12b
8ccc#
12b
=88
6bb
6b
12aa
6gg
6b
12ff#
=89
4ff#
12b
12b
8ee#
12b
8r
12b
=90
4aaa
12a
12a
4eee
12a
12a
=91
4.ccc
8bb
=92
6aa
12gg
6ff
12ee
=93
4ee
6dd#
12ee
=94
*k[b-e-a-d-]
*A-:
*M6/8
8r
4e-
8r
4e-
=95
8cc-
8dd-
8ee-
8b-
8cc-
8g
=96
4.b-
4a-
.
=97
8dd-
8ee-
8ff-
8cc
8dd-
8a-
=98
4.cc-
4b-
.
=99
8gg-
8g-
8g
8a-
8a
8ee-
=100
4.dd-
4cc
.
=101
8aa-
8a-
8a
16b-
16b
16cc
16dd-
16dd
16ee-
=102
8gg-
8ff-
8ff-
8aa-
8ee-
8ee-
=103
8ee-
8dd-
8dd-
8ff-
8cc-
8cc-
=104
8cc-
8b-
8b-
8ff
8b-
8b-
=105
8cc-
8b-
8b-
8ee-
8b-
8b-
=106
*k[f#]
*e:
8r
4B
8r
4B
=107
8g
8a
8b
8f#
8g
8d#
=108
4.f#
4e
.
=109
8a
8b
8cc
8g#
8a
8e
=110
4.g
4f#
.
=111
8dd
8d
8d#
8e
8e#
8b
=112
4.a
4g#
.
=113
8ee
8e
8e#
16f#
16g
16g#
16a
16a#
16b
=114
8ddd
8ccc
8ccc
8eee
8bb
8bb
=115
8bb
8aa
8aa
8ccc
8gg
8gg
=116
8gg
8ff#
8ff#
8ccc#
8ff#
8ff#
=117
8gg
8ff#
8ff#
8ccc
8ff#
8ff#
=118
4r
8r
16B
16c
16B
16c
16B
16c
=119
16A
16c
16A
16c
16A
16c
16G
16e
16G
16e
16G
16e
=120
16F#
16d#
16F#
16d#
16F#
16d#
=121
8b
8b
8b
8cc
8cc
=122
8cc
8ee
8ee
8ee
8dd#
8dd#
=123
8dd#
8a
8a
8a
8cc
8cc
=124
8cc
8a#
8a#
8a#
8b
8b
=125
8b
8cc
8dd
8ee
8dd
8cc
=126
8b
8cc
8dd
8ee
8dd
8cc
=127
8b
8b
8a
8b
8b
8g
=128
8b
8b
8f#
8b
8b
8g
=129
4.ee
4.b
=130
4.g[
4g]
8f#
=131
8e
8f#
8g
8d#
8e
8c
=132
4.B
4A#
8r
=133
4.B
4.b]
=134
4.e
4.ee]
=135
4.a[
16a]
16b
16g#
16a
16cc
16ff
=136
16aa
16ccc
16fff
16aaa
16cccc
16ffff
8aaaa
8r
8ff
=137
4.ee
8dd#
8ee
8ff#
=138
4.aa
8gg
8ff#
8ee
=139
*M2/4
8bb
16r
16bbb
8bbb
16r
16bb
=140
8bb
16r
16bb
8bb
8bb
=141
4eee
4bb
=142
4.gg
8ff#
=143
12ee
12ff#
12gg
12dd#
12ee
12cc
=144
4b
8a#
8r
=145
16r
16a#
16e
16a#
8dd
8cc#
=146
16r
16cc#
16e
16cc#
8b
8a#
=147
16r
16a#
16e
16a#
8dd
8cc#
=148
16r
16cc#
16e
16cc#
8b
8a#
=149
16r
16dd#
16a
16dd#
8gg
8ff#
=150
16r
16ff#
16a
16ff#
8ee
8dd#
=151
16r
16dd#
16a
16dd#
8gg
8ff#
=152
16r
16ff#
16a
16ff#
8ee
8dd#
=153
4aa
8.bb
16bb
=154
8ccc
8aa
8ccc
8r
=155
4aa#
8.bb
16bb
=156
8ccc#
8aa#
8ccc#
8r
=157
4bb
8.ccc
16ccc#
=158
8ddd
8bb
8ddd
8r
=159
8ddd#
8bb
8ddd#
8r
=160
8e
8d
8e
8B
=161
24r
24c
24B
24A
24c
24e
24r
24e
24d
24c
24e
24a
=162
4r
4f
8a
8g#
=163
24r
24cc
24b
24a
24cc
24ee
24r
24ee
24dd
24cc
24ee
24aa
=164
24r
24ff
24ee
24dd
24ff
24aa
8aa
8gg#
=165
24r
24c
24B
24A
24c
24e
8e
8d#
=166
24r
24r
24e
24d#
24d
24f
24b
8b
8a
=167
24r
24cc
24b
24a
24cc
24ee
8ee
8dd#
=168
24r
24ee
24dd#
24dd
24ff
24bb
8bb
8aa
=169
8r
4ccc
8ccc[
=170
8ccc]
8bb
8bb-
8aa
=171
8r
8gg#
8r
8gg
=172
8r
8ff#
8r
8ff
=173
8r
4ee
8r
=174
4b
8.b
16b
=175
8b
8b
4b
=176
8cc
8dd
4b
=177
8cc
8dd
4b
=178
4dd
8.dd
16dd
=179
8dd
8dd
4dd
=180
8ee
8ff#
4dd
=181
8ee
8ff#
4dd
=182
4dd
8cc#
16r
16dd
=183
8ee-
8dd
8ee-
8r
=184
4ff
8ee
16r
16ff
=185
8ee
8dd#
8ee
8r
=186
4ee
8dd#
16r
16ee
=187
8b
8a#
8b
8r
=188
8cc
8b
8cc
8r
=189
8f#
8e#
8f#
8r
=190
16e
16g
16e
16g
4b
16g
16e-
16g
=191
8b-
16g
8ee
16g
16d
16g
8b-
16g
=192
8a
16g
8ee
16g
16c#
16g
8a
16g
=193
8g#
16b
8ee
16b
8g
16b
8ee
16b
=194
16d
16f#
16d
16f#
4a
16f
16d-
16f
=195
8a-
16f
8dd
16f
16c
16f
8a-
16f
=196
8g
16f
8dd
16f
16B
16f
8g
16f
=197
8f#
16a
8dd
16a
8f
16a
8dd
16a
=198
16e
16dd
8g
16cc
8g
16cc
8g
16cc
=199
16d#
16cc
8f#
16b
8f#
16b
8f
16b
=200
8e
16b
8e
16a
8e
16g
8e
16f#
=201
8e
16g
8e
16a
16f#
16b
16f#
16b
=202
16cc
16ee
16cc
16ee
16cc
16ee
16cc
16ee
=203
16cc
16ee
16cc
16ee
16b
16dd#
16b
16dd#
=204
16ee
16bb
16ee
16aa
16ee
16gg
16ee
16ff#
=205
16ee
16gg
16ee
16gg#
16ee
16gg
16ee
16gg#
=206
16ee
16aa
16ee
16gg#
16ee
16aa
16ee
16aa#
=207
8bb
8r
8bb
8r
=208
16r
16g
16a
16f#
16g
16b
16ee
16gg
=209
16r
16b
16cc
16a#
16b
16ee
16gg
16bb
=210
16r
16ee
16ff#
16dd#
16ee
16gg
16bb
16eee
=211
8.ggg
16fff#
8fff#
8eee
=212
4eee
8ddd#
8r
=213
8.fff
16eee
8eee
8ddd
=214
4ddd
8ccc#
8r
=215
16r
16e
16r
16c#
16r
16d
16r
16d#
=216
16r
16g
16r
16f#
4b
=217
16r
16ee
16r
16cc#
16r
16dd
16r
16dd#
=218
16r
16gg
16r
16ff#
4bb
=219
16r
16ff
16r
16ee
4aa
=220
16r
16ee
16r
16dd#
16r
16dd
16r
16cc#
=221
16r
16cc
16r
16b
16r
16a#
16r
16a
=222
16r
16g#
16r
16g
16r
16d#
16r
16e
=223
16r
16f#
16r
16g
16r
16a#
16r
16cc#
=224
16r
16ee
16r
16gg
16r
16aa#
16r
16ccc#
=225
8eee
8r
8ggg
8r
=226
4bbb
4r
=227
4dd#
4r
=228
4ee
4r
==
*-
